exported-svg/file-plus.svg

<svg height="24" viewBox="0 0 24 24" width="24" xmlns="http://www.w3.org/2000/svg"><path d="m15 3.70710678v4.29289322h4.2928932zm5 5.29289322h-5.5c-.2761424 0-.5-.22385763-.5-.5v-5.5h-7.5c-.82842712 0-1.5.67157288-1.5 1.5v16c0 .8284271.67157288 1.5 1.5 1.5h12c.8284271 0 1.5-.6715729 1.5-1.5zm-5.5-7c.1326082 0 .2597852.05267842.3535534.14644661l6 6c.0937682.09376819.1464466.22094515.1464466.35355339v12c0 1.3807119-1.1192881 2.5-2.5 2.5h-12c-1.38071187 0-2.5-1.1192881-2.5-2.5v-16c0-1.38071187 1.11928813-2.5 2.5-2.5zm-2.5 14h-2.5c-.27614237 0-.5-.2238576-.5-.5s.22385763-.5.5-.5h2.5v-2.5c0-.2761424.2238576-.5.5-.5s.5.2238576.5.5v2.5h2.5c.2761424 0 .5.2238576.5.5s-.2238576.5-.5.5h-2.5v2.5c0 .2761424-.2238576.5-.5.5s-.5-.2238576-.5-.5z"/></svg>

<?xml version="1.0" encoding="UTF-8"?>
<svg width="24px" height="24px" viewBox="0 0 24 24" version="1.1" xmlns="http://www.w3.org/2000/svg" xmlns:xlink="http://www.w3.org/1999/xlink">
    <!-- Generator: Sketch 55.2 (78181) - https://sketchapp.com -->
    <title>file-plus</title>
    <desc>Created with Sketch.</desc>
    <g id="file-plus" stroke="none" stroke-width="1" fill="none" fill-rule="evenodd">
        <path d="M15,3.70710678 L15,8 L19.2928932,8 L15,3.70710678 Z M20,9 L14.5,9 C14.2238576,9 14,8.77614237 14,8.5 L14,3 L6.5,3 C5.67157288,3 5,3.67157288 5,4.5 L5,20.5 C5,21.3284271 5.67157288,22 6.5,22 L18.5,22 C19.3284271,22 20,21.3284271 20,20.5 L20,9 Z M14.5,2 C14.6326082,2 14.7597852,2.05267842 14.8535534,2.14644661 L20.8535534,8.14644661 C20.9473216,8.2402148 21,8.36739176 21,8.5 L21,20.5 C21,21.8807119 19.8807119,23 18.5,23 L6.5,23 C5.11928813,23 4,21.8807119 4,20.5 L4,4.5 C4,3.11928813 5.11928813,2 6.5,2 L14.5,2 Z" id="Combined-Shape" fill="#000000" fill-rule="nonzero"></path>
        <path d="M12,16 L9.5,16 C9.22385763,16 9,15.7761424 9,15.5 C9,15.2238576 9.22385763,15 9.5,15 L12,15 L12,12.5 C12,12.2238576 12.2238576,12 12.5,12 C12.7761424,12 13,12.2238576 13,12.5 L13,15 L15.5,15 C15.7761424,15 16,15.2238576 16,15.5 C16,15.7761424 15.7761424,16 15.5,16 L13,16 L13,18.5 C13,18.7761424 12.7761424,19 12.5,19 C12.2238576,19 12,18.7761424 12,18.5 L12,16 Z" id="Combined-Shape" fill="#000000" fill-rule="nonzero"></path>
    </g>
</svg>
